X:1     %Music
T:The Lost Lady Found
B:Broadwood, L, 1908, English Traditional Songs and Carols, London, Boosey
N:Reprinted by EP Publishing Limited, Rowman & Littlefield, Totowa, New Jersey, 1974
Z:Lucy Broadwood
S:Mrs. Hill, 1893
F:http://www.folkinfo.org/songs
M:3/4     %Meter
L:1/8     %
K:G
F2 |E2 E2 F2 |D2 D2 E2 |B2 (BA) (FG) |E2 z2
w:'Twas down in a val-ley a fair maid_ did_ dwell,
      F2 |E2 E2 E2 |D2 D2 E2 | B2 (d^c) (BA) | B2 z2
w:   She lived with her un-cle, as all knew_ full_ well. 
A2 |B2 B2 e2 | B2 B2 ^c2 |AA A2 F2 | D2 z2 
w: 'Twas down in the val-ley where vi-o-lets were gay
F2 |E2 E2 F2 | D2 D2 E2 |B2 (BA) (FG) | E4 z2 |]
w:Three gyp-sies be-trayed her and stole her_ a--way